src/icons/calls.svg

<svg width="64" height="64" viewBox="0 0 64 64" xmlns="http://www.w3.org/2000/svg"><path fill-rule="evenodd" clip-rule="evenodd" d="M22.0417 41.9585C26.3639 46.2808 31.3811 50.0021 35.6015 52.7889C40.2832 55.8803 46.3916 55.5496 51.2298 52.2959L57.9374 47.785L44.9823 37.8675L38.4307 44.3721L35.6074 44.367L19.6332 28.3928L19.6281 25.5695L26.1327 19.0179L16.2153 6.06282L11.7043 12.7704C8.4506 17.6086 8.11991 23.717 11.2113 28.3987C13.9982 32.6191 17.7194 37.6363 22.0417 41.9585ZM33.3974 56.1268C29.0506 53.2566 23.7942 49.368 19.2132 44.787C14.6322 40.206 10.7437 34.9496 7.87338 30.6028C3.77422 24.395 4.35662 16.5285 8.38511 10.5382L14.4505 1.51915L17.6982 1.41953L30.37 17.9725L30.2012 20.5973L23.8708 26.9735L37.0267 40.1294L43.4029 33.799L46.0277 33.6303L62.5807 46.302L62.4811 49.5497L53.462 55.6151C47.4717 59.6436 39.6053 60.226 33.3974 56.1268Z" /></svg>

<svg xmlns="http://www.w3.org/2000/svg" width="64" height="64" viewBox="0 0 64 64"><path fill-rule="evenodd" d="M22.042 41.959c4.322 4.322 9.34 8.043 13.56 10.83 4.681 3.091 10.79 2.76 15.628-.493l6.707-4.511-12.955-9.917-6.551 6.504-2.824-.005-15.974-15.974-.005-2.823 6.505-6.552-9.918-12.955-4.51 6.707C8.45 17.61 8.12 23.717 11.21 28.4c2.787 4.22 6.508 9.237 10.83 13.56m11.355 14.168c-4.346-2.87-9.603-6.759-14.184-11.34s-8.47-9.837-11.34-14.184c-4.099-6.208-3.516-14.074.512-20.065l6.066-9.019 3.247-.1L30.37 17.974l-.169 2.624-6.33 6.377L37.027 40.13l6.376-6.33 2.625-.169L62.58 46.302l-.1 3.248-9.019 6.065c-5.99 4.029-13.857 4.611-20.065.512" clip-rule="evenodd"/></svg>
